!!!OTL: Zhonghua
!!!ARE: Asia, China,ÿHunan, Changde
!! I, 552
!!!SCT: C1472
!!!YEM: Copyright 1995, estate of Helmut Schaffrath.
**kern
*ICvox
*Ivox
!! Mixed meters:  2/4; 3/4
*M2/4
*k[f#c#]
*D:
{8dd
8f#
16f#
16a
8dd
=1
8f#
8a
4a
=2
8dd
16b
16a
8f#
8a
=3
16e
16e
32f#
32e
16d
4e}
=4
{8e
8a
8a
16f#
16e
=5
8.d
16e
4f#}
=6
{16ee
16ff#
16ee
16dd
=7
8b
4b
16dd
16ee
=8
8dd
8dd
8ff#
8b
=9
2a}
=10
{8f#
8d
4e
=11
8d
8f#
4e
=12
8e
8a
8a
16f#
16e
=13
8d
8e
4f#}
=14
{16ee
16ff#
16ee
16dd
=15
8b
4b
16dd
16ee
=16
8dd
8dd
8ff#
8b
=17
2a}
==
!!!AGN: Wuge, Huagu, Dengdiao
!!!ONB: ESAC (Essen Associative Code) Database: HUANG
!!!AMT: irregular
!!!AIN: vox
!!!EED: Helmut Schaffrath
!!!EEV: 1.0
*-
